**harm	**harte	**timestamp	**phrase	**leadinstrument	**kern
*M4/4	*M4/4	*	*	*	*
*B-:	*B-:	*	*	*	*B-:
1r;	N	0	.	r	1r;
=1	=1	=1	=1	=1	=1
*>A2_intro	*>A2_intro	*>A2_intro	*>A2_intro	*>A2_intro	*>A2_intro
2r	N	1.741	newline	voice	2r
2Ib	B-:maj/3	2.392	.	voice	2b- 2D 2ff
=2	=2	=2	=2	=2	=2
2-iiio	D-:dim	3.042	.	voice	2D- 2f- 2a--
2V7c	F:7/5	3.692	.	voice	2f 2a 2C 2ee-
=3	=3	=3	=3	=3	=3
*>A_chorus	*>A_chorus	*>A_chorus	*>A_chorus	*>A_chorus	*>A_chorus
1I	B-:maj	4.342	newline	voice	1B- 1dd 1ff
=4	=4	=4	=4	=4	=4
1I	B-:maj	5.648	.	voice	1B- 1dd 1ff
=5	=5	=5	=5	=5	=5
1II7	C:7	6.954	.	voice	1C 1e 1g 1b-
=6	=6	=6	=6	=6	=6
1II7	C:7	8.26	.	voice	1C 1e 1g 1b-
=7	=7	=7	=7	=7	=7
2V7	F:7	9.567	newline	voice	2F 2a 2cc 2ee-
2V	F:maj6	10.253	.	voice	2F 2a 2cc
=8	=8	=8	=8	=8	=8
1V7	F:7	10.939	.	voice	1F 1a 1cc 1ee-
=9	=9	=9	=9	=9	=9
2I	B-:maj	12.311	.	voice	2B- 2dd 2ff
2Ib	B-:maj/3	12.997	.	voice	2b- 2D 2ff
=10	=10	=10	=10	=10	=10
2-iiio	D-:dim	13.683	.	voice	2D- 2f- 2a--
2V7c	F:7/5	14.369	.	voice	2f 2a 2C 2ee-
=11	=11	=11	=11	=11	=11
1I	B-:maj	15.055	newline	voice	1B- 1dd 1ff
=12	=12	=12	=12	=12	=12
1I	B-:maj	16.359	.	voice	1B- 1dd 1ff
=13	=13	=13	=13	=13	=13
1II7	C:7	17.662	.	voice	1C 1e 1g 1b-
=14	=14	=14	=14	=14	=14
1II7	C:7	18.966	.	voice	1C 1e 1g 1b-
=15	=15	=15	=15	=15	=15
1V7	F:7	20.269	newline	voice	1F 1a 1cc 1ee-
=16	=16	=16	=16	=16	=16
1V7	F:7	21.583	.	voice	1F 1a 1cc 1ee-
=17	=17	=17	=17	=17	=17
1I	B-:maj	22.897	.	voice	1B- 1dd 1ff
=18	=18	=18	=18	=18	=18
1I	B-:maj	24.211	.	voice	1B- 1dd 1ff
=19	=19	=19	=19	=19	=19
*>B_verse	*>B_verse	*>B_verse	*>B_verse	*>B_verse	*>B_verse
1III7	D:7	25.525	newline	voice	1D 1f# 1a 1cc
=20	=20	=20	=20	=20	=20
1III7	D:7	26.835	.	voice	1D 1f# 1a 1cc
=21	=21	=21	=21	=21	=21
1III7	D:7	28.145	.	voice	1D 1f# 1a 1cc
=22	=22	=22	=22	=22	=22
1III7	D:7	29.454	.	voice	1D 1f# 1a 1cc
=23	=23	=23	=23	=23	=23
1III7	D:7	30.764	newline	voice	1D 1f# 1a 1cc
=24	=24	=24	=24	=24	=24
1III7	D:7	32.06	.	voice	1D 1f# 1a 1cc
=25	=25	=25	=25	=25	=25
1VI	G:maj	33.356	.	voice	1G 1b 1dd
=26	=26	=26	=26	=26	=26
1VI	G:maj	34.651	.	voice	1G 1b 1dd
=27	=27	=27	=27	=27	=27
1II7	C:7	35.947	newline	voice	1C 1e 1g 1b-
=28	=28	=28	=28	=28	=28
1II7	C:sus4(b7)	37.249	.	voice	1C 1e 1g 1b-
.	B:7(b9)/3	37.9	.	voice	.
=29	=29	=29	=29	=29	=29
1II7	C:7	38.551	.	voice	1C 1e 1g 1b-
=30	=30	=30	=30	=30	=30
1II7	C:7	39.853	.	voice	1C 1e 1g 1b-
=31	=31	=31	=31	=31	=31
1II7	C:7	41.155	newline	voice	1C 1e 1g 1b-
=32	=32	=32	=32	=32	=32
1II7	C:7	42.483	.	voice	1C 1e 1g 1b-
=33	=33	=33	=33	=33	=33
2V7	F:7	43.812	.	voice	2F 2a 2cc 2ee-
2Ib	B-:maj/3	44.476	.	voice	2b- 2D 2ff
=34	=34	=34	=34	=34	=34
2-iiio	D-:dim	45.14	.	voice	2D- 2f- 2a--
2V7c	F:7/5	45.805	.	voice	2f 2a 2C 2ee-
=35	=35	=35	=35	=35	=35
*>A_chorus	*>A_chorus	*>A_chorus	*>A_chorus	*>A_chorus	*>A_chorus
1I	B-:maj	46.469	newline	voice	1B- 1dd 1ff
=36	=36	=36	=36	=36	=36
1I	B-:maj	47.755	.	voice	1B- 1dd 1ff
=37	=37	=37	=37	=37	=37
1II7	C:7	49.04	.	voice	1C 1e 1g 1b-
=38	=38	=38	=38	=38	=38
1II7	C:7	50.325	.	voice	1C 1e 1g 1b-
=39	=39	=39	=39	=39	=39
2V7	F:7	51.611	newline	voice	2F 2a 2cc 2ee-
2V	F:maj6	52.281	.	voice	2F 2a 2cc
=40	=40	=40	=40	=40	=40
1V7	F:7	52.951	.	voice	1F 1a 1cc 1ee-
=41	=41	=41	=41	=41	=41
2I	B-:maj	54.291	.	voice	2B- 2dd 2ff
2Ib	B-:maj/3	54.961	.	voice	2b- 2D 2ff
=42	=42	=42	=42	=42	=42
2-iiio	D-:dim	55.631	.	voice	2D- 2f- 2a--
2V7c	F:7/5	56.301	.	voice	2f 2a 2C 2ee-
=43	=43	=43	=43	=43	=43
1I	B-:maj	56.971	newline	voice	1B- 1dd 1ff
=44	=44	=44	=44	=44	=44
1I	B-:maj	58.29	.	voice	1B- 1dd 1ff
=45	=45	=45	=45	=45	=45
1II7	C:7	59.61	.	voice	1C 1e 1g 1b-
=46	=46	=46	=46	=46	=46
1II7	C:7	60.929	.	voice	1C 1e 1g 1b-
=47	=47	=47	=47	=47	=47
1V7	F:7	62.249	newline	voice	1F 1a 1cc 1ee-
=48	=48	=48	=48	=48	=48
1V7	F:7	63.577	.	voice	1F 1a 1cc 1ee-
=49	=49	=49	=49	=49	=49
2I	B-:maj	64.906	.	voice	2B- 2dd 2ff
2-VIm7	F#:7	65.57	.	voice	2G- 2b- 2dd- 2ff
=50	=50	=50	=50	=50	=50
*B:	*B:	*	*	*	*B:
2II7	C#:7	66.234	.	voice	2C# 2e# 2g# 2b
2V7	F#:7	66.899	.	voice	2F# 2a# 2cc# 2ee
=51	=51	=51	=51	=51	=51
*>A_chorus	*>A_chorus	*>A_chorus	*>A_chorus	*>A_chorus	*>A_chorus
1I	B:maj	67.563	newline	voice	1B 1dd# 1ff#
=52	=52	=52	=52	=52	=52
1I	B:maj	68.879	.	voice	1B 1dd# 1ff#
=53	=53	=53	=53	=53	=53
1II7	C#:7	70.195	.	voice	1C# 1e# 1g# 1b
=54	=54	=54	=54	=54	=54
1II7	C#:7	71.511	.	voice	1C# 1e# 1g# 1b
=55	=55	=55	=55	=55	=55
1V7	F#:7	72.827	newline	voice	1F# 1a# 1cc# 1ee
=56	=56	=56	=56	=56	=56
1V7	F#:7	74.154	.	voice	1F# 1a# 1cc# 1ee
=57	=57	=57	=57	=57	=57
2I	B:maj	75.481	.	voice	2B 2dd# 2ff#
2V7	F#:7	76.145	.	voice	2F# 2a# 2cc# 2ee
=58	=58	=58	=58	=58	=58
2-iiio	D:dim	76.808	.	voice	2D 2f 2a-
2V7c	F#:7/5	77.472	.	voice	2f# 2a# 2C# 2ee
=59	=59	=59	=59	=59	=59
1I	B:maj	78.135	newline	voice	1B 1dd# 1ff#
=60	=60	=60	=60	=60	=60
1I	B:maj	79.448	.	voice	1B 1dd# 1ff#
=61	=61	=61	=61	=61	=61
1II7	C#:7	80.761	.	voice	1C# 1e# 1g# 1b
=62	=62	=62	=62	=62	=62
1II7	C#:7	82.074	.	voice	1C# 1e# 1g# 1b
=63	=63	=63	=63	=63	=63
1V7	F#:7	83.387	newline	voice	1F# 1a# 1cc# 1ee
=64	=64	=64	=64	=64	=64
1V7	F#:7	84.716	.	voice	1F# 1a# 1cc# 1ee
=65	=65	=65	=65	=65	=65
1I	B:maj	86.044	.	voice	1B 1dd# 1ff#
=66	=66	=66	=66	=66	=66
1I	B:maj	87.373	.	voice	1B 1dd# 1ff#
=67	=67	=67	=67	=67	=67
*>B_verse	*>B_verse	*>B_verse	*>B_verse	*>B_verse	*>B_verse
1III7	D#:7	88.701	newline	voice	1D# 1f## 1a# 1cc#
=68	=68	=68	=68	=68	=68
1III7	D#:7	90.029	.	voice	1D# 1f## 1a# 1cc#
=69	=69	=69	=69	=69	=69
1III7	D#:7	91.356	.	voice	1D# 1f## 1a# 1cc#
=70	=70	=70	=70	=70	=70
1III7	D#:7	92.684	.	voice	1D# 1f## 1a# 1cc#
=71	=71	=71	=71	=71	=71
1III7	D#:7	94.011	newline	voice	1D# 1f## 1a# 1cc#
=72	=72	=72	=72	=72	=72
1III7	D#:7	95.325	.	voice	1D# 1f## 1a# 1cc#
=73	=73	=73	=73	=73	=73
1vi	G#:min	96.639	.	voice	1G# 1b 1dd#
=74	=74	=74	=74	=74	=74
1vi	G#:min	97.953	.	voice	1G# 1b 1dd#
=75	=75	=75	=75	=75	=75
1II7	C#:7	99.267	newline	voice	1C# 1e# 1g# 1b
=76	=76	=76	=76	=76	=76
2ii	C#:sus4(b7)	100.577	.	voice	2C# 2e 2g#
2-IIm7b	C:7(b9)/3	101.233	.	voice	2c 2E 2g 2b
=77	=77	=77	=77	=77	=77
1II7	C#:7	101.888	.	voice	1C# 1e# 1g# 1b
=78	=78	=78	=78	=78	=78
1II7	C#:7	103.198	.	voice	1C# 1e# 1g# 1b
=79	=79	=79	=79	=79	=79
1II7	C#:7	104.508	newline	voice	1C# 1e# 1g# 1b
=80	=80	=80	=80	=80	=80
1II7	C#:7	105.846	.	voice	1C# 1e# 1g# 1b
=81	=81	=81	=81	=81	=81
1V	F#:maj	107.184	.	voice	1F# 1a# 1cc#
=82	=82	=82	=82	=82	=82
2-iiio	D:dim	108.522	.	voice	2D 2f 2a-
2V7c	F#:7/5	109.19	.	voice	2f# 2a# 2C# 2ee
=83	=83	=83	=83	=83	=83
*>A_chorus	*>A_chorus	*>A_chorus	*>A_chorus	*>A_chorus	*>A_chorus
1I	B:maj	109.859	newline	voice	1B 1dd# 1ff#
=84	=84	=84	=84	=84	=84
1I	B:maj	111.175	.	voice	1B 1dd# 1ff#
=85	=85	=85	=85	=85	=85
1II7	C#:7	112.491	.	voice	1C# 1e# 1g# 1b
=86	=86	=86	=86	=86	=86
1II7	C#:7	113.807	.	voice	1C# 1e# 1g# 1b
=87	=87	=87	=87	=87	=87
1V7	F#:7	115.123	newline	voice	1F# 1a# 1cc# 1ee
=88	=88	=88	=88	=88	=88
1V7	F#:7	116.429	.	voice	1F# 1a# 1cc# 1ee
=89	=89	=89	=89	=89	=89
2I	B:maj	117.736	.	voice	2B 2dd# 2ff#
2V	F#:maj	118.389	.	voice	2F# 2a# 2cc#
=90	=90	=90	=90	=90	=90
2-iiio	D:dim	119.042	.	voice	2D 2f 2a-
2V7c	F#:7/5	119.695	.	voice	2f# 2a# 2C# 2ee
=91	=91	=91	=91	=91	=91
1I	B:maj	120.348	newline	voice	1B 1dd# 1ff#
=92	=92	=92	=92	=92	=92
1I	B:maj	121.654	.	voice	1B 1dd# 1ff#
=93	=93	=93	=93	=93	=93
1II7	C#:7	122.96	.	voice	1C# 1e# 1g# 1b
=94	=94	=94	=94	=94	=94
1II7	C#:7	124.265	.	voice	1C# 1e# 1g# 1b
=95	=95	=95	=95	=95	=95
*>A3_outro	*>A3_outro	*>A3_outro	*>A3_outro	*>A3_outro	*>A3_outro
1II7	C#:7	125.571	newline	voice	1C# 1e# 1g# 1b
=96	=96	=96	=96	=96	=96
1V7	F#:7	126.89	.	voice	1F# 1a# 1cc# 1ee
=97	=97	=97	=97	=97	=97
1I	B:maj	128.209	.	voice	1B 1dd# 1ff#
=98	=98	=98	=98	=98	=98
1I	B:maj	129.528	.	voice	1B 1dd# 1ff#
=99	=99	=99	=99	=99	=99
1II7	C#:7	130.846	newline	voice	1C# 1e# 1g# 1b
=100	=100	=100	=100	=100	=100
1V7	F#:7	132.122	.	voice	1F# 1a# 1cc# 1ee
=101	=101	=101	=101	=101	=101
1I	B:maj	133.397	.	voice	1B 1dd# 1ff#
=102	=102	=102	=102	=102	=102
1I	B:maj	134.672	.	voice	1B 1dd# 1ff#
=103	=103	=103	=103	=103	=103
1II7	C#:7	135.947	newline	voice	1C# 1e# 1g# 1b
=104	=104	=104	=104	=104	=104
1V7	F#:7	137.213	.	voice	1F# 1a# 1cc# 1ee
=105	=105	=105	=105	=105	=105
1I	B:maj	138.48	.	voice	1B 1dd# 1ff#
=106	=106	=106	=106	=106	=106
1I	B:maj	139.746	.	voice	1B 1dd# 1ff#
1r;	N	141.963	.	r	1r;
1r;	N	145.037	.	r	1r;
*-	*-	*-	*-	*-	*-
!!!OTL: Those Lazy-Hazy-Crazy Days Of Summer
!!!COC: Nat King Cole
!!!BillboardChartDate: 1963/07/20, 1963/07/06
!!!BillboardPeak: 6, 6
!!!BillboardWeeksOnChart: 12, 12
!!!SampleTargetRank: 31, 11
!!!SampleActualRank: 33, 12
!!!SampleID#: 516, 1132
!!!RDF**harmony: **recip + pitch class of root + harmonic quality
!!!RDF**harte: Chris Harte's syntax, used by MIREX
!!!RDF**phrase: newline = linebreak in original McGill transcription
!!!RDF**timestamp: McGill audio timestamp in seconds
!!!RDF**leadinstrument: original McGill primary instrumentation annotation
!!!RDT: 2017/01/12/
!!!ENC: Nathaniel Condit-Schultz
!!!EST: Awating manual error checking and editing.
